ix/simcard_broken.svg

<svg viewBox="0 0 24 24" fill="none" xmlns="http://www.w3.org/2000/svg" height="1em" width="1em">
  <path d="M3 11v6c0 3 2 5 5 5h8c3 0 5-2 5-5v-6.93c0-1.33-.53-2.6-1.46-3.54l-3.07-3.07A4.994 4.994 0 0 0 12.93 2H8C5 2 3 4 3 7" stroke="#292D32" stroke-width="1.5" stroke-linecap="round" stroke-linejoin="round"/>
  <path d="m9.5 14-2 2 2 2m5-4 2 2-2 2" stroke="#292D32" stroke-width="1.5" stroke-linecap="round" stroke-linejoin="round"/>
</svg>

<svg viewBox="0 0 24 24" fill="none" xmlns="http://www.w3.org/2000/svg" height="1em" width="1em">
  <path d="M3 11V17C3 20 5 22 8 22H16C19 22 21 20 21 17V10.07C21 8.74001 20.47 7.47003 19.54 6.53003L16.47 3.46002C15.53 2.52002 14.26 2 12.93 2H8C5 2 3 4 3 7" stroke="#292D32" stroke-width="1.5" stroke-linecap="round" stroke-linejoin="round"/>
  <path d="M9.5 14L7.5 16L9.5 18" stroke="#292D32" stroke-width="1.5" stroke-linecap="round" stroke-linejoin="round"/>
  <path d="M14.5 14L16.5 16L14.5 18" stroke="#292D32" stroke-width="1.5" stroke-linecap="round" stroke-linejoin="round"/>
</svg>
